rospo-icon-theme-classic-common/48x48/places/folder-black-development.svg

<svg height="48" width="48" xmlns="http://www.w3.org/2000/svg"><rect height="26" opacity=".2" rx="2" width="40" x="4" y="17"/><path d="m4 34c0 1.108.892 2 2 2h36c1.108 0 2-.892 2-2v-22c0-1.108-.892-2-2-2h-20v-2c0-1.108-.892-2-2-2h-14c-1.108 0-2 .892-2 2" fill="#3f3f3f"/><rect height="26" opacity=".2" rx="2" width="40" x="4" y="15"/><rect fill="#dcdcdc" height="16" rx="2" width="36" x="6" y="13"/><rect fill="#4f4f4f" height="26" rx="2" width="40" x="4" y="16"/><path d="m6 6c-1.108 0-2 .892-2 2v1c0-1.108.892-2 2-2h14c1.108 0 2 .892 2 2v-1c0-1.108-.892-2-2-2zm16 4v1h20c1.108 0 2 .892 2 2v-1c0-1.108-.892-2-2-2z" fill="#fff" opacity=".1"/><path d="m22.251 22-.155 1.845c-.584.216-1.128.531-1.607.929l-1.677-.79-1.75 3.032 1.521 1.056c-.054.306-.082.617-.084.928 0 .312.027.624.08.932l-1.517 1.052 1.75 3.031 1.672-.787c.481.397 1.026.71 1.611.924l.155 1.848h3.5l.155-1.844c.584-.216 1.128-.531 1.607-.929l1.676.789 1.75-3.032-1.522-1.056c.054-.306.083-.616.085-.927 0-.312-.028-.624-.081-.932l1.518-1.053-1.75-3.031-1.672.787c-.481-.397-1.026-.709-1.611-.923l-.154-1.849zm1.75 5.001c1.105 0 2 .895 2 2s-.895 2-2 2-2-.895-2-2 .895-2 2-2z" fill="#c2c2c2"/></svg>

<svg xmlns="http://www.w3.org/2000/svg" width="48" height="48" version="1">
 <rect style="opacity:0.2" width="40" height="26" x="4" y="17" rx="2" ry="2"/>
 <path style="fill:#3f3f3f" d="M 4,34 C 4,35.108 4.892,36 6,36 H 42 C 43.108,36 44,35.108 44,34 V 12 C 44,10.892 43.108,10 42,10 H 22 V 8 C 22,6.892 21.108,6 20,6 H 6 C 4.892,6 4,6.892 4,8"/>
 <rect style="opacity:0.2" width="40" height="26" x="4" y="15" rx="2" ry="2"/>
 <rect style="fill:#dcdcdc" width="36" height="16" x="6" y="13" rx="2" ry="2"/>
 <rect style="fill:#4f4f4f" width="40" height="26" x="4" y="16" rx="2" ry="2"/>
 <path style="opacity:0.1;fill:#ffffff" d="M 6,6 C 4.892,6 4,6.892 4,8 V 9 C 4,7.892 4.892,7 6,7 H 20 C 21.108,7 22,7.892 22,9 V 8 C 22,6.892 21.108,6 20,6 Z M 22,10 V 11 H 42 C 43.108,11 44,11.892 44,13 V 12 C 44,10.892 43.108,10 42,10 Z"/>
 <path style="fill:#c2c2c2" d="M 22.251,22 22.096,23.845 C 21.512,24.061 20.968,24.376 20.489,24.774 L 18.812,23.984 17.062,27.016 18.583,28.072 C 18.529,28.378 18.501,28.689 18.499,29 18.499,29.312 18.526,29.624 18.579,29.932 L 17.062,30.984 18.812,34.015 20.484,33.228 C 20.965,33.625 21.51,33.938 22.095,34.152 L 22.25,36 H 25.75 L 25.905,34.156 C 26.489,33.94 27.033,33.625 27.512,33.227 L 29.188,34.016 30.938,30.984 29.416,29.928 C 29.47,29.622 29.499,29.312 29.501,29.001 29.501,28.689 29.473,28.377 29.42,28.069 L 30.938,27.016 29.188,23.985 27.516,24.772 C 27.035,24.375 26.49,24.063 25.905,23.849 L 25.751,22 Z M 24.001,27.001 C 25.106,27.001 26.001,27.896 26.001,29.001 26.001,30.106 25.106,31.001 24.001,31.001 22.896,31.001 22.001,30.106 22.001,29.001 22.001,27.896 22.896,27.001 24.001,27.001 Z"/>
</svg>
